src/assets/images/icons/social/facebook.svg

<svg fill="none" viewBox="0 0 20 20" xmlns="http://www.w3.org/2000/svg"><path d="m14.9992.296337-2.5935-.00404c-2.91373 0-4.79671 1.875433-4.79671 4.778163v2.20306h-2.60768c-.22533 0-.4078.17734-.4078.39609v3.19199c0 .2187.18268.3959.4078.3959h2.60768v8.0543c0 .2188.18247.3959.4078.3959h3.40231c.2253 0 .4078-.1773.4078-.3959v-8.0543h3.049c.2253 0 .4078-.1772.4078-.3959l.0012-3.19199c0-.10503-.0431-.20562-.1194-.27995-.0764-.07433-.1804-.11614-.2886-.11614h-3.05v-1.86756c0-.89762.2203-1.3533 1.4248-1.3533l1.7471-.00061c.2251 0 .4076-.17734.4076-.39589v-2.963932c0-.218346-.1823-.395487-.4072-.395891z" fill="#f9f9fb"/></svg>

<svg viewBox="0 0 20 20" fill="none" xmlns="http://www.w3.org/2000/svg">
<path id="Vector" d="M14.9992 0.296337L12.4057 0.292297C9.49197 0.292297 7.60899 2.16773 7.60899 5.07046V7.27352H5.00131C4.77598 7.27352 4.59351 7.45086 4.59351 7.66961V10.8616C4.59351 11.0803 4.77619 11.2575 5.00131 11.2575H7.60899V19.3118C7.60899 19.5306 7.79146 19.7077 8.01679 19.7077H11.4191C11.6444 19.7077 11.8269 19.5304 11.8269 19.3118V11.2575H14.8759C15.1012 11.2575 15.2837 11.0803 15.2837 10.8616L15.2849 7.66961C15.2849 7.56458 15.2418 7.46399 15.1655 7.38966C15.0891 7.31533 14.9851 7.27352 14.8769 7.27352H11.8269V5.40596C11.8269 4.50834 12.0472 4.05266 13.2517 4.05266L14.9988 4.05205C15.2239 4.05205 15.4064 3.87471 15.4064 3.65616V0.692228C15.4064 0.473882 15.2241 0.296741 14.9992 0.296337Z" fill="#F9F9FB"/>
</svg>
